X:16386
T:Tengo tres cabritines
C:Trad.
M:2/4
L:1/8
Q:1/4=150
K:C
CE|: G2 GF|G2 E2|G2 G/F/E/F/|G4-|1 G2 CE :|2 G2 EG|
|F2 DF|E2 C2|D2 D/C/B,/C/|D4-|D2 DF|F2 GA|G2 E2|F2 DF|E4-|E2 CE|
